lock-open.svg

<svg fill="currentColor" viewBox="0 0 24 24"><path d="M18 8a2 2 0 0 1 2 2v10a2 2 0 0 1-2 2H6a2 2 0 0 1-2-2V10a2 2 0 0 1 2-2h9V6a3 3 0 0 0-3-3 3 3 0 0 0-3 3H7a5 5 0 0 1 5-5 5 5 0 0 1 5 5v2zm-6 9a2 2 0 0 0 2-2 2 2 0 0 0-2-2 2 2 0 0 0-2 2 2 2 0 0 0 2 2"/></svg>

<svg  viewBox="0 0 24 24" fill="currentColor"><path  d="M18,8A2,2 0 0,1 20,10V20A2,2 0 0,1 18,22H6C4.89,22 4,21.1 4,20V10A2,2 0 0,1 6,8H15V6A3,3 0 0,0 12,3A3,3 0 0,0 9,6H7A5,5 0 0,1 12,1A5,5 0 0,1 17,6V8H18M12,17A2,2 0 0,0 14,15A2,2 0 0,0 12,13A2,2 0 0,0 10,15A2,2 0 0,0 12,17Z"/></svg>
